arb/images/icons/fb-foot.svg

<svg width="24" height="25" viewBox="0 0 24 25" fill="none" xmlns="http://www.w3.org/2000/svg">
<path d="M12 0.902344C5.384 0.902344 0 6.28634 0 12.9023C0 19.5183 5.384 24.9023 12 24.9023C18.616 24.9023 24 19.5183 24 12.9023C24 6.28634 18.616 0.902344 12 0.902344ZM12 2.90234C17.535 2.90234 22 7.36734 22 12.9023C22.0024 15.2963 21.144 17.6113 19.5813 19.4249C18.0187 21.2386 15.856 22.4298 13.488 22.7813V15.8183H16.336L16.783 12.9253H13.488V11.3453C13.488 10.1453 13.883 9.07834 15.006 9.07834H16.811V6.55434C16.494 6.51134 15.823 6.41834 14.555 6.41834C11.907 6.41834 10.355 7.81634 10.355 11.0023V12.9253H7.633V15.8183H10.355V22.7563C8.01975 22.372 5.89724 21.1698 4.36669 19.3647C2.83615 17.5595 1.99729 15.269 2 12.9023C2 7.36734 6.465 2.90234 12 2.90234Z" fill="#687A95"/>
</svg>

<svg width="24" height="25" fill="none" xmlns="http://www.w3.org/2000/svg"><path d="M12 .902c-6.616 0-12 5.384-12 12s5.384 12 12 12 12-5.384 12-12-5.384-12-12-12zm0 2c5.535 0 10 4.465 10 10a9.977 9.977 0 01-8.512 9.88v-6.964h2.848l.447-2.893h-3.295v-1.58c0-1.2.395-2.267 1.518-2.267h1.805V6.554c-.317-.043-.988-.136-2.256-.136-2.648 0-4.2 1.398-4.2 4.584v1.923H7.633v2.893h2.722v6.938A9.975 9.975 0 012 12.902c0-5.535 4.465-10 10-10z" fill="#687A95"/></svg>
